images/50917058.svg

<?xml version="1.0" encoding="UTF-8"?>
<svg xmlns="http://www.w3.org/2000/svg" xmlns:xlink="http://www.w3.org/1999/xlink" width="300pt" height="300pt" viewBox="0 0 300 300" version="1.1">
<defs>
<g>
<symbol overflow="visible" id="glyph0-0">
<path style="stroke:none;" d="M 0.796875 2.828125 L 0.796875 -11.28125 L 8.796875 -11.28125 L 8.796875 2.828125 Z M 1.703125 1.9375 L 7.90625 1.9375 L 7.90625 -10.390625 L 1.703125 -10.390625 Z M 1.703125 1.9375 "/>
</symbol>
<symbol overflow="visible" id="glyph0-1">
<path style="stroke:none;" d="M 6.3125 -10.59375 C 5.164062 -10.59375 4.253906 -10.164062 3.578125 -9.3125 C 2.898438 -8.457031 2.5625 -7.296875 2.5625 -5.828125 C 2.5625 -4.359375 2.898438 -3.195312 3.578125 -2.34375 C 4.253906 -1.488281 5.164062 -1.0625 6.3125 -1.0625 C 7.457031 -1.0625 8.363281 -1.488281 9.03125 -2.34375 C 9.695312 -3.195312 10.03125 -4.359375 10.03125 -5.828125 C 10.03125 -7.296875 9.695312 -8.457031 9.03125 -9.3125 C 8.363281 -10.164062 7.457031 -10.59375 6.3125 -10.59375 Z M 6.3125 -11.875 C 7.945312 -11.875 9.253906 -11.328125 10.234375 -10.234375 C 11.210938 -9.140625 11.703125 -7.671875 11.703125 -5.828125 C 11.703125 -3.984375 11.210938 -2.507812 10.234375 -1.40625 C 9.253906 -0.3125 7.945312 0.234375 6.3125 0.234375 C 4.664062 0.234375 3.351562 -0.3125 2.375 -1.40625 C 1.394531 -2.507812 0.90625 -3.984375 0.90625 -5.828125 C 0.90625 -7.671875 1.394531 -9.140625 2.375 -10.234375 C 3.351562 -11.328125 4.664062 -11.875 6.3125 -11.875 Z M 6.3125 -11.875 "/>
</symbol>
<symbol overflow="visible" id="glyph0-2">
<path style="stroke:none;" d="M 1.578125 -11.671875 L 3.703125 -11.671875 L 8.875 -1.90625 L 8.875 -11.671875 L 10.40625 -11.671875 L 10.40625 0 L 8.28125 0 L 3.109375 -9.765625 L 3.109375 0 L 1.578125 0 Z M 1.578125 -11.671875 "/>
</symbol>
<symbol overflow="visible" id="glyph0-3">
<path style="stroke:none;" d="M 1.578125 -11.671875 L 3.15625 -11.671875 L 3.15625 -6.890625 L 8.890625 -6.890625 L 8.890625 -11.671875 L 10.46875 -11.671875 L 10.46875 0 L 8.890625 0 L 8.890625 -5.5625 L 3.15625 -5.5625 L 3.15625 0 L 1.578125 0 Z M 1.578125 -11.671875 "/>
</symbol>
</g>
</defs>
<g id="surface9837">
<rect x="0" y="0" width="300" height="300" style="fill:rgb(100%,100%,100%);fill-opacity:1;stroke:none;"/>
<path style="fill:none;stroke-width:1.2;stroke-linecap:butt;stroke-linejoin:miter;stroke:rgb(100%,0%,0%);stroke-opacity:1;stroke-miterlimit:10;" d="M 63.234375 207.550781 L 64.566406 188.46875 "/>
<path style="fill:none;stroke-width:1.2;stroke-linecap:butt;stroke-linejoin:miter;stroke:rgb(0%,0%,0%);stroke-opacity:1;stroke-miterlimit:10;" d="M 64.566406 188.46875 L 65.898438 169.390625 "/>
<path style="fill:none;stroke-width:1.2;stroke-linecap:butt;stroke-linejoin:miter;stroke:rgb(100%,0%,0%);stroke-opacity:1;stroke-miterlimit:10;" d="M 54.253906 206.921875 L 55.585938 187.84375 "/>
<path style="fill:none;stroke-width:1.2;stroke-linecap:butt;stroke-linejoin:miter;stroke:rgb(0%,0%,0%);stroke-opacity:1;stroke-miterlimit:10;" d="M 55.585938 187.84375 L 56.917969 168.765625 "/>
<path style=" stroke:none;fill-rule:nonzero;fill:rgb(100%,100%,100%);fill-opacity:1;" d="M 52.746094 197.734375 L 65.746094 197.734375 L 65.746094 216.734375 L 52.746094 216.734375 Z M 52.746094 197.734375 "/>
<g style="fill:rgb(100%,0%,0%);fill-opacity:1;">
  <use xlink:href="#glyph0-1" x="52.746094" y="212.585938"/>
</g>
<path style="fill:none;stroke-width:1.2;stroke-linecap:butt;stroke-linejoin:miter;stroke:rgb(0%,0%,0%);stroke-opacity:1;stroke-miterlimit:10;" d="M 61.40625 169.078125 L 45.550781 158.386719 "/>
<path style="fill:none;stroke-width:1.2;stroke-linecap:butt;stroke-linejoin:miter;stroke:rgb(0%,0%,100%);stroke-opacity:1;stroke-miterlimit:10;" d="M 45.550781 158.386719 L 29.695312 147.691406 "/>
<path style="fill:none;stroke-width:1.2;stroke-linecap:butt;stroke-linejoin:miter;stroke:rgb(0%,0%,0%);stroke-opacity:1;stroke-miterlimit:10;" d="M 95.785156 152.308594 L 61.40625 169.078125 "/>
<path style="fill:none;stroke-width:1.2;stroke-linecap:butt;stroke-linejoin:miter;stroke:rgb(0%,0%,100%);stroke-opacity:1;stroke-miterlimit:10;" d="M 29.695312 147.691406 L 31.027344 128.613281 "/>
<path style="fill:none;stroke-width:1.2;stroke-linecap:butt;stroke-linejoin:miter;stroke:rgb(0%,0%,0%);stroke-opacity:1;stroke-miterlimit:10;" d="M 31.027344 128.613281 L 32.359375 109.535156 "/>
<path style=" stroke:none;fill-rule:nonzero;fill:rgb(100%,100%,100%);fill-opacity:1;" d="M 17.695312 138.191406 L 41.695312 138.191406 L 41.695312 157.191406 L 17.695312 157.191406 Z M 17.695312 138.191406 "/>
<g style="fill:rgb(0%,0%,100%);fill-opacity:1;">
  <use xlink:href="#glyph0-2" x="17.695312" y="153.042969"/>
  <use xlink:href="#glyph0-3" x="29.664062" y="153.042969"/>
</g>
<path style="fill:none;stroke-width:1.2;stroke-linecap:butt;stroke-linejoin:miter;stroke:rgb(0%,0%,0%);stroke-opacity:1;stroke-miterlimit:10;" d="M 32.359375 109.535156 L 66.734375 92.765625 "/>
<path style="fill:none;stroke-width:1.2;stroke-linecap:butt;stroke-linejoin:miter;stroke:rgb(0%,0%,0%);stroke-opacity:1;stroke-miterlimit:10;" d="M 66.734375 92.765625 L 98.449219 114.148438 "/>
<path style="fill:none;stroke-width:1.2;stroke-linecap:butt;stroke-linejoin:miter;stroke:rgb(0%,0%,0%);stroke-opacity:1;stroke-miterlimit:10;" d="M 98.449219 114.148438 L 117.003906 109.519531 "/>
<path style="fill:none;stroke-width:1.2;stroke-linecap:butt;stroke-linejoin:miter;stroke:rgb(0%,0%,100%);stroke-opacity:1;stroke-miterlimit:10;" d="M 117.003906 109.519531 L 135.5625 104.890625 "/>
<path style="fill:none;stroke-width:1.2;stroke-linecap:butt;stroke-linejoin:miter;stroke:rgb(0%,0%,0%);stroke-opacity:1;stroke-miterlimit:10;" d="M 95.785156 152.308594 L 98.449219 114.148438 "/>
<path style="fill:none;stroke-width:1.2;stroke-linecap:butt;stroke-linejoin:miter;stroke:rgb(0%,0%,0%);stroke-opacity:1;stroke-miterlimit:10;" d="M 87.074219 147.863281 L 89.203125 117.339844 "/>
<path style="fill:none;stroke-width:1.2;stroke-linecap:butt;stroke-linejoin:miter;stroke:rgb(0%,0%,100%);stroke-opacity:1;stroke-miterlimit:10;" d="M 135.5625 104.890625 L 145.699219 121.109375 "/>
<path style="fill:none;stroke-width:1.2;stroke-linecap:butt;stroke-linejoin:miter;stroke:rgb(0%,0%,0%);stroke-opacity:1;stroke-miterlimit:10;" d="M 145.699219 121.109375 L 155.835938 137.328125 "/>
<path style=" stroke:none;fill-rule:nonzero;fill:rgb(100%,100%,100%);fill-opacity:1;" d="M 123.5625 95.390625 L 147.5625 95.390625 L 147.5625 114.390625 L 123.5625 114.390625 Z M 123.5625 95.390625 "/>
<g style="fill:rgb(0%,0%,100%);fill-opacity:1;">
  <use xlink:href="#glyph0-2" x="123.5625" y="110.242188"/>
  <use xlink:href="#glyph0-3" x="135.53125" y="110.242188"/>
</g>
<path style="fill:none;stroke-width:1.2;stroke-linecap:butt;stroke-linejoin:miter;stroke:rgb(0%,0%,0%);stroke-opacity:1;stroke-miterlimit:10;" d="M 155.835938 137.328125 L 131.25 166.632812 "/>
<path style="fill:none;stroke-width:1.2;stroke-linecap:butt;stroke-linejoin:miter;stroke:rgb(0%,0%,0%);stroke-opacity:1;stroke-miterlimit:10;" d="M 146.480469 134.472656 L 126.8125 157.917969 "/>
<path style="fill:none;stroke-width:1.2;stroke-linecap:butt;stroke-linejoin:miter;stroke:rgb(0%,0%,0%);stroke-opacity:1;stroke-miterlimit:10;" d="M 155.835938 137.328125 L 193.992188 139.992188 "/>
<path style="fill:none;stroke-width:1.2;stroke-linecap:butt;stroke-linejoin:miter;stroke:rgb(0%,0%,0%);stroke-opacity:1;stroke-miterlimit:10;" d="M 131.25 166.632812 L 95.785156 152.308594 "/>
<path style="fill:none;stroke-width:1.2;stroke-linecap:butt;stroke-linejoin:miter;stroke:rgb(0%,0%,0%);stroke-opacity:1;stroke-miterlimit:10;" d="M 193.992188 139.992188 L 210.761719 174.367188 "/>
<path style="fill:none;stroke-width:1.2;stroke-linecap:butt;stroke-linejoin:miter;stroke:rgb(0%,0%,0%);stroke-opacity:1;stroke-miterlimit:10;" d="M 203.757812 139.480469 L 217.175781 166.984375 "/>
<path style="fill:none;stroke-width:1.2;stroke-linecap:butt;stroke-linejoin:miter;stroke:rgb(0%,0%,0%);stroke-opacity:1;stroke-miterlimit:10;" d="M 215.375 108.277344 L 193.992188 139.992188 "/>
<path style="fill:none;stroke-width:1.2;stroke-linecap:butt;stroke-linejoin:miter;stroke:rgb(0%,0%,0%);stroke-opacity:1;stroke-miterlimit:10;" d="M 210.761719 174.367188 L 248.921875 177.03125 "/>
<path style="fill:none;stroke-width:1.2;stroke-linecap:butt;stroke-linejoin:miter;stroke:rgb(0%,0%,0%);stroke-opacity:1;stroke-miterlimit:10;" d="M 248.921875 177.03125 L 259.613281 161.175781 "/>
<path style="fill:none;stroke-width:1.2;stroke-linecap:butt;stroke-linejoin:miter;stroke:rgb(0%,0%,100%);stroke-opacity:1;stroke-miterlimit:10;" d="M 259.613281 161.175781 L 270.304688 145.316406 "/>
<path style="fill:none;stroke-width:1.2;stroke-linecap:butt;stroke-linejoin:miter;stroke:rgb(0%,0%,0%);stroke-opacity:1;stroke-miterlimit:10;" d="M 243.597656 168.828125 L 252.152344 156.140625 "/>
<path style="fill:none;stroke-width:1.2;stroke-linecap:butt;stroke-linejoin:miter;stroke:rgb(0%,0%,100%);stroke-opacity:1;stroke-miterlimit:10;" d="M 252.152344 156.140625 L 260.707031 143.457031 "/>
<path style="fill:none;stroke-width:1.2;stroke-linecap:butt;stroke-linejoin:miter;stroke:rgb(0%,0%,100%);stroke-opacity:1;stroke-miterlimit:10;" d="M 270.304688 145.316406 L 261.917969 128.128906 "/>
<path style="fill:none;stroke-width:1.2;stroke-linecap:butt;stroke-linejoin:miter;stroke:rgb(0%,0%,0%);stroke-opacity:1;stroke-miterlimit:10;" d="M 261.917969 128.128906 L 253.535156 110.941406 "/>
<path style=" stroke:none;fill-rule:nonzero;fill:rgb(100%,100%,100%);fill-opacity:1;" d="M 264.304688 135.816406 L 276.304688 135.816406 L 276.304688 154.816406 L 264.304688 154.816406 Z M 264.304688 135.816406 "/>
<g style="fill:rgb(0%,0%,100%);fill-opacity:1;">
  <use xlink:href="#glyph0-2" x="264.304688" y="150.667969"/>
</g>
<path style="fill:none;stroke-width:1.2;stroke-linecap:butt;stroke-linejoin:miter;stroke:rgb(0%,0%,0%);stroke-opacity:1;stroke-miterlimit:10;" d="M 253.535156 110.941406 L 215.375 108.277344 "/>
<path style="fill:none;stroke-width:1.2;stroke-linecap:butt;stroke-linejoin:miter;stroke:rgb(0%,0%,0%);stroke-opacity:1;stroke-miterlimit:10;" d="M 249.089844 119.652344 L 218.566406 117.523438 "/>
</g>
</svg>

<svg xmlns="http://www.w3.org/2000/svg" xmlns:xlink="http://www.w3.org/1999/xlink" width="300pt" height="300pt" viewBox="0 0 300 300"><defs><symbol overflow="visible"><path d="M.797 2.828v-14.11h8V2.83zm.906-.89h6.203v-12.33H1.703zm0 0"/></symbol><symbol overflow="visible" id="a"><path d="M6.313-10.594c-1.15 0-2.06.43-2.735 1.28-.68.857-1.015 2.017-1.015 3.486 0 1.47.335 2.633 1.015 3.484.676.856 1.586 1.28 2.735 1.28 1.144.002 2.05-.424 2.718-1.28.665-.85 1-2.015 1-3.484 0-1.47-.335-2.63-1-3.484-.667-.852-1.573-1.282-2.717-1.282zm0-1.28c1.632 0 2.94.546 3.92 1.64.978 1.093 1.47 2.562 1.47 4.406 0 1.844-.492 3.32-1.47 4.422-.98 1.093-2.288 1.64-3.92 1.64-1.65 0-2.96-.546-3.938-1.64-.98-1.102-1.47-2.578-1.47-4.422 0-1.844.49-3.313 1.47-4.406.977-1.094 2.29-1.64 3.938-1.64zm0 0"/></symbol><symbol overflow="visible" id="b"><path d="M1.578-11.672h2.125l5.172 9.766v-9.766h1.53V0H8.282L3.11-9.766V0H1.577zm0 0"/></symbol><symbol overflow="visible" id="c"><path d="M1.578-11.672h1.578v4.78H8.89v-4.78h1.58V0H8.89v-5.563H3.157V0H1.578zm0 0"/></symbol></defs><g><path fill="#fff" d="M0 0h300v300H0z"/><path d="M63.234 207.55l1.332-19.08" stroke-width="1.2" stroke="#f00" stroke-miterlimit="10" fill="none"/><path d="M64.566 188.47l1.332-19.08" stroke-width="1.2" stroke="#000" stroke-miterlimit="10" fill="none"/><path d="M54.254 206.922l1.332-19.078" stroke-width="1.2" stroke="#f00" stroke-miterlimit="10" fill="none"/><path d="M55.586 187.844l1.332-19.078" stroke-width="1.2" stroke="#000" stroke-miterlimit="10" fill="none"/><path d="M52.746 197.734h13v19h-13zm0 0" fill="#fff"/><use xlink:href="#a" x="52.746" y="212.586" fill="#f00"/><path d="M61.406 169.078l-15.855-10.69" stroke-width="1.2" stroke="#000" stroke-miterlimit="10" fill="none"/><path d="M45.55 158.387L29.696 147.69" stroke-width="1.2" stroke="#00f" stroke-miterlimit="10" fill="none"/><path d="M95.785 152.31l-34.38 16.768" stroke-width="1.2" stroke="#000" stroke-miterlimit="10" fill="none"/><path d="M29.695 147.69l1.332-19.077" stroke-width="1.2" stroke="#00f" stroke-miterlimit="10" fill="none"/><path d="M31.027 128.613l1.332-19.078" stroke-width="1.2" stroke="#000" stroke-miterlimit="10" fill="none"/><path d="M17.695 138.19h24v19h-24zm0 0" fill="#fff"/><g fill="#00f"><use xlink:href="#b" x="17.695" y="153.043"/><use xlink:href="#c" x="29.664" y="153.043"/></g><path d="M32.36 109.535l34.374-16.77M66.734 92.766l31.715 21.382M98.45 114.148l18.554-4.628" stroke-width="1.2" stroke="#000" stroke-miterlimit="10" fill="none"/><path d="M117.004 109.52l18.558-4.63" stroke-width="1.2" stroke="#00f" stroke-miterlimit="10" fill="none"/><path d="M95.785 152.31l2.664-38.162M87.074 147.863l2.13-30.523" stroke-width="1.2" stroke="#000" stroke-miterlimit="10" fill="none"/><path d="M135.563 104.89l10.136 16.22" stroke-width="1.2" stroke="#00f" stroke-miterlimit="10" fill="none"/><path d="M145.7 121.11l10.136 16.218" stroke-width="1.2" stroke="#000" stroke-miterlimit="10" fill="none"/><path d="M123.563 95.39h24v19h-24zm0 0" fill="#fff"/><g fill="#00f"><use xlink:href="#b" x="123.563" y="110.242"/><use xlink:href="#c" x="135.531" y="110.242"/></g><path d="M155.836 137.328l-24.586 29.305M146.48 134.473l-19.667 23.445M155.836 137.328l38.156 2.664M131.25 166.633L95.785 152.31M193.992 139.992l16.77 34.375M203.758 139.48l13.418 27.504M215.375 108.277l-21.383 31.715M210.762 174.367l38.16 2.664M248.922 177.03l10.69-15.854" stroke-width="1.2" stroke="#000" stroke-miterlimit="10" fill="none"/><path d="M259.613 161.176l10.692-15.86" stroke-width="1.2" stroke="#00f" stroke-miterlimit="10" fill="none"/><path d="M243.598 168.828l8.554-12.687" stroke-width="1.2" stroke="#000" stroke-miterlimit="10" fill="none"/><path d="M252.152 156.14l8.555-12.683M270.305 145.316l-8.387-17.187" stroke-width="1.2" stroke="#00f" stroke-miterlimit="10" fill="none"/><path d="M261.918 128.13l-8.383-17.19" stroke-width="1.2" stroke="#000" stroke-miterlimit="10" fill="none"/><path d="M264.305 135.816h12v19h-12zm0 0" fill="#fff"/><use xlink:href="#b" x="264.305" y="150.668" fill="#00f"/><path d="M253.535 110.94l-38.16-2.663M249.09 119.652l-30.524-2.13" stroke-width="1.2" stroke="#000" stroke-miterlimit="10" fill="none"/></g></svg>
